icons/assets/dark/workspace-folder.svg

<svg width="48" height="48" viewBox="0 0 48 48" fill="none" xmlns="http://www.w3.org/2000/svg">
<path d="M40 36C40 38.2091 38.2091 40 36 40C33.7909 40 32 38.2091 32 36C32 33.7909 33.7909 32 36 32C38.2091 32 40 33.7909 40 36Z" stroke="#62646A" stroke-width="3.5"/>
<path fill-rule="evenodd" clip-rule="evenodd" d="M8.00433 8.39334C7.03784 8.39334 6.25433 9.17684 6.25433 10.1433V37.8566C6.25433 38.8231 7.03784 39.6066 8.00433 39.6066H27.7526C27.2825 38.5331 27.0159 37.3502 27.0015 36.1066H9.75433V11.8933H17.742L19.867 14.6448C20.1983 15.0739 20.7099 15.3251 21.252 15.3251H38.2316L38.2437 27.2817C39.5488 27.6165 40.7395 28.2366 41.7455 29.0716L41.7299 13.5734C41.7289 12.6076 40.9457 11.8251 39.9799 11.8251H22.1116L19.9867 9.07369C19.6553 8.64461 19.1438 8.39334 18.6016 8.39334H8.00433Z" fill="#62646A"/>
</svg>

<svg width="48" height="48" fill="none" xmlns="http://www.w3.org/2000/svg"><path d="M40 36a4 4 0 11-8 0 4 4 0 018 0z" stroke="#62646A" stroke-width="3.5"/><path fill-rule="evenodd" clip-rule="evenodd" d="M8.004 8.393a1.75 1.75 0 00-1.75 1.75v27.714c0 .966.784 1.75 1.75 1.75h19.749a8.964 8.964 0 01-.752-3.5H9.755V11.893h7.988l2.125 2.752c.331.429.843.68 1.385.68h16.98l.012 11.957a8.974 8.974 0 013.502 1.79l-.016-15.499a1.75 1.75 0 00-1.75-1.748H22.112l-2.125-2.751a1.75 1.75 0 00-1.385-.68H8.004z" fill="#62646A"/></svg>
